Papirus/22x22/panel/nylas-tray-full-newitems.svg

<?xml version="1.0" encoding="UTF-8" standalone="no"?>
<svg xmlns:dc="http://purl.org/dc/elements/1.1/" xmlns:cc="http://creativecommons.org/ns#" xmlns:rdf="http://www.w3.org/1999/02/22-rdf-syntax-ns#" xmlns:svg="http://www.w3.org/2000/svg" xmlns="http://www.w3.org/2000/svg" version="1.1" id="svg2" viewBox="0 0 22 22">
    <metadata id="metadata20">
        <rdf:RDF>
            <cc:Work rdf:about="">
                <dc:format>
                    image/svg+xml
                </dc:format>
                <dc:type rdf:resource="http://purl.org/dc/dcmitype/StillImage"/>
                <dc:title/>
            </cc:Work>
        </rdf:RDF>
    </metadata>
    <path id="path4143" d="M 12 2.5 L 12 5.5 L 19 9.5 L 19 6.5 L 12 2.5 z M 4 3.2226562 C 3.448 3.2226562 3 3.6706563 3 4.2226562 L 3 5.5 L 10 9.5 L 10 6.5019531 C 8.167 5.4539531 6.3260937 4.3984686 4.4960938 3.3554688 C 4.3450936 3.2684687 4.174 3.2226562 4 3.2226562 z M 3 7.5 L 3 10.5 L 10 14.5 L 10 11.5 L 3 7.5 z M 12 7.5 L 12 10.5 L 19 14.5 L 19 11.5 L 12 7.5 z M 3 12.5 L 3 15.5 L 10 19.5 L 10 16.5 L 3 12.5 z " style="fill:#ffffff;fill-opacity:1;stroke:none;fill-rule:evenodd;opacity:1"/>
    <path id="path4" d="m 12,12.5 0,2.998047 c 1.833,1.048 3.673906,2.103484 5.503906,3.146484 0.151,0.087 0.322094,0.132813 0.496094,0.132813 0.552,0 1,-0.448 1,-1 L 19,16.5 l -7,-4 z" style="fill:#5294e2;fill-opacity:1;stroke:none;fill-rule:evenodd;opacity:1"/>
</svg>

<?xml version="1.0" encoding="UTF-8" standalone="no"?>
<svg id="svg2" xmlns:rdf="http://www.w3.org/1999/02/22-rdf-syntax-ns#" xmlns="http://www.w3.org/2000/svg" viewBox="0 0 22 22" version="1.1" xmlns:cc="http://creativecommons.org/ns#" xmlns:dc="http://purl.org/dc/elements/1.1/">
 <metadata id="metadata20">
  <rdf:RDF>
   <cc:Work rdf:about="">
    <dc:format>image/svg+xml</dc:format>
    <dc:type rdf:resource="http://purl.org/dc/dcmitype/StillImage"/>
    <dc:title/>
   </cc:Work>
  </rdf:RDF>
 </metadata>
 <path id="path4143" d="m12 2.5v3l7 4v-3l-7-4zm-8 0.7227c-0.552 0-1 0.448-1 1v1.2773l7 4v-2.998c-1.833-1.048-3.6739-2.1035-5.5039-3.1465-0.151-0.087-0.3221-0.1328-0.4961-0.1328zm-1 4.2773v3l7 4v-3l-7-4zm9 0v3l7 4v-3l-7-4zm-9 5v3l7 4v-3l-7-4z" fill-rule="evenodd" fill="#fff"/>
 <path id="path4" d="m12 12.5v2.998c1.833 1.048 3.6739 2.1035 5.5039 3.1465 0.151 0.087 0.32209 0.13281 0.49609 0.13281 0.552 0 1-0.448 1-1v-1.277l-7-4z" fill-rule="evenodd" fill="#5294e2"/>
</svg>
